Obsidian/actions/22s/page-2sides.svg

<svg height="22" viewBox="0 0 22 22" width="22" xmlns="http://www.w3.org/2000/svg"><path d="m1 1v14h14v-14zm2 2h4v10h-4zm6 0h4v10h-4z" fill="#bebebe" transform="translate(3 3)"/></svg>

<svg xmlns="http://www.w3.org/2000/svg" width="22" height="22" viewBox="0 0 22 22">
 <defs>
  <style id="current-color-scheme" type="text/css">
   .ColorScheme-Text { color:#bebebe; } .ColorScheme-Highlight { color:#4285f4; }
  </style>
 </defs>
 <path style="fill:currentColor" class="ColorScheme-Text" d="M 1 1 L 1 15 L 15 15 L 15 1 L 1 1 z M 3 3 L 7 3 L 7 13 L 3 13 L 3 3 z M 9 3 L 13 3 L 13 13 L 9 13 L 9 3 z" transform="translate(3 3)"/>
</svg>
